X:26
T:Drizzle
M:C
L:1/8
C: Paul Gitlitz 1999
R:Swing
B:Giblitz Fancy
N:Another West Coast rainy day 
D:"To Have and To Hold" available @ www.glitchless.net
K:Em
EAc|"Em7"BG2"Am"A- AEAc|"Bm6"BG2"Dm7"d- dEAc|"Em7"B2G"Am7"A- AGED-|"E7"DCB,"Am7"A,- A,EAc|!
"Em7"BG2"Am7"A- AEAc|"Bm6"BG2"Dm7"d- d4|"E7"ed2"Bm7"c Bcd2|1"E7"e2cB "Am7"A:|2"Am7"e2ga"E7"b4|! 
|:"Dm7"a2a2abag|"Am7"=fe2e-e3e|"E7"d2d2dedB|"Am"cd3"Am7"e3e|!
"Dm7"a2a2abag|"Am7"=fe2e-e3e|1"E7"ed2c "Bm7"Bcd2|"E7"e4-eAce:|2"B7"BcAB GF3|"E7"E4-E|]
